X:226 
T:Wicklow Mountains, The
F:file ID: cre.5/226wick_m
N:I added a repeat and second ending to part 1.
B:CRE5.004 (SlÃÂÃÂÃÂÃÂ©ibhte Chill Mhantain)
M:6/8
Q:160
R:jig
K:D
A,|F2F FDB,|DFA dAF|E2F EDB,|A,B,D EDB,|
A,FF FDB,|DFA BAF|E2E EDB,|A,B,C Dde||
|:e|fed BAF|E3 FDB,|A,DD FAA|BAF EFA|
[1 fed B2A|B,3 DB,A,|DFA d3|BAF Dd:|
[2 fed BAF|EDE FDB,|A,DD FAA|BAF HD3|]

%%%

